X:1
T:Vanmeter, CM
T:Vanmeter, CM
T:Isaac Baker Woodbury (1819-1858)
T:Public Domain Courtesy of the Cyber Hymnal™
C:Isaac Baker Woodbury (1819-1858)
Z:Public Domain
Z:Courtesy of the Cyber Hymnal™
%%score ( 1 2 ) ( 3 4 )
L:1/8
Q:1/4=150
M:3/2
K:Ab
V:1 treble 
V:2 treble 
V:3 bass 
V:4 bass 
V:1
 [Ec]2 [Ec]2 [Ec]2 | [Ec]6 [EA]2 [EA]2 [EA]2 | [EA]6 [FB]2 [FB]2 [FB]2 | (B4 A4) [EG]4 | %4
 [EA]6 [Ec]2 [Ec]2 [Ec]2 | [Ec]6 [EA]2 [EA]2 [_GA]2 | [FA]8 [DF]4 | (E4 A4) [CA]4 | [Ec]8 [EB]4 | %9
 [CA]6 |] %10
V:2
 x6 | x12 | x12 | E8 x4 | x12 | x12 | x12 | E8 x4 | x12 | x6 |] %10
V:3
 A,2 A,2 A,2 | A,6 [A,,C]2 [C,A,]2 [A,,C]2 | [D,D]6 [B,,D]2 [B,,D]2 [B,,D]2 | (D4 C4) [E,B,]4 | %4
 [A,,C]6 A,2 A,2 A,2 | A,6 [A,,C]2 [C,A,]2 [A,,C]2 | [D,D]8 [D,A,]4 | ([C,A,]4 [A,,C]4) [F,A,]4 | %8
 [E,A,]8 [E,G,]4 | [A,,A,]6 |] %10
V:4
 A,2 A,2 A,2 | A,6 x6 | x12 | E,8 x4 | x6 A,2 A,2 A,2 | A,6 x6 | x12 | x12 | x12 | x6 |] %10

